assets/Teapot/Flat/teapot_flat.svg

<svg width="32" height="32" viewBox="0 0 32 32" fill="none" xmlns="http://www.w3.org/2000/svg">
<path d="M17 6.49C17 7.3129 16.3329 7.98 15.51 7.98C14.6871 7.98 14.02 7.3129 14.02 6.49C14.02 5.6671 14.6871 5 15.51 5C16.3329 5 17 5.6671 17 6.49Z" fill="#CA0B4A"/>
<path d="M30 16.73C30 20.19 27.19 23 23.73 23H18.82L22.96 15.02C23.6 13.78 24.88 13 26.27 13C28.33 13 30 14.67 30 16.73ZM26.27 15C25.62 15 25.03 15.36 24.73 15.93L22.11 21H23.73C26.08 21 28 19.08 28 16.73C28 15.78 27.22 15 26.27 15Z" fill="#CA0B4A"/>
<path d="M20.86 28.94L19.89 28L15.5058 26.9669L11.06 28L10.09 28.94C9.68997 29.33 9.96997 30 10.52 30H20.43C20.98 30 21.25 29.33 20.86 28.94Z" fill="#CA0B4A"/>
<path d="M8.71 26.4205L8.72 26.43H8.71V26.4205Z" fill="#CA0B4A"/>
<path d="M4.5 22.42L8.71 26.4205V16.2L6.05 14.8C5.62 14.58 5.35 14.13 5.35 13.64V11.53C5.35 11.24 5.11 11 4.82 11H2.53C2.24 11 2 11.24 2 11.53V16.59C2 18.79 2.9 20.9 4.5 22.42Z" fill="#CA0B4A"/>
<path d="M22.07 10C20.48 8.16 18.13 7 15.51 7C12.89 7 10.54 8.16 8.95001 10H22.07Z" fill="#F8312F"/>
<path d="M24.81 15.2C24.79 15.15 24.77 15.1025 24.75 15.055C24.73 15.0075 24.71 14.96 24.69 14.91L23.06 11L15.44 10.3356L7.81999 11L6.18999 14.92C6.16999 14.965 6.14999 15.0125 6.12999 15.06C6.10999 15.1075 6.08999 15.155 6.06999 15.2V15.21C5.60999 16.36 5.35999 17.61 5.35999 18.93C5.35999 22.9221 7.68508 26.373 11.0582 28.0017L11.06 28H19.8249C23.1963 26.3701 25.52 22.9181 25.52 18.92C25.52 17.61 25.27 16.35 24.81 15.2Z" fill="#F8312F"/>
<path d="M23.26 9.5H7.75C7.34 9.5 7 9.84 7 10.25C7 10.66 7.34 11 7.75 11H23.26C23.67 11 24.01 10.66 24.01 10.25C24.01 9.84 23.67 9.5 23.26 9.5Z" fill="#FF822D"/>
</svg>

<svg xmlns="http://www.w3.org/2000/svg" width="32" height="32" fill="none"><path fill="#CA0B4A" d="M17 6.49a1.49 1.49 0 1 1-2.98 0 1.49 1.49 0 0 1 2.98 0ZM30 16.73c0 3.46-2.81 6.27-6.27 6.27h-4.91l4.14-7.98A3.73 3.73 0 0 1 26.27 13 3.73 3.73 0 0 1 30 16.73ZM26.27 15c-.65 0-1.24.36-1.54.93L22.11 21h1.62A4.28 4.28 0 0 0 28 16.73c0-.95-.78-1.73-1.73-1.73ZM20.86 28.94l-.97-.94-4.384-1.033L11.06 28l-.97.94c-.4.39-.12 1.06.43 1.06h9.91c.55 0 .82-.67.43-1.06ZM8.71 26.42l.01.01h-.01v-.01ZM4.5 22.42l4.21 4V16.2l-2.66-1.4a1.3 1.3 0 0 1-.7-1.16v-2.11c0-.29-.24-.53-.53-.53H2.53c-.29 0-.53.24-.53.53v5.06c0 2.2.9 4.31 2.5 5.83Z"/><path fill="#F8312F" d="M22.07 10c-1.59-1.84-3.94-3-6.56-3-2.62 0-4.97 1.16-6.56 3h13.12ZM24.81 15.2l-.06-.145-.06-.145L23.06 11l-7.62-.664L7.82 11l-1.63 3.92-.06.14-.06.14v.01c-.46 1.15-.71 2.4-.71 3.72a10.07 10.07 0 0 0 5.698 9.072L11.06 28h8.765a10.077 10.077 0 0 0 5.695-9.08c0-1.31-.25-2.57-.71-3.72Z"/><path fill="#FF822D" d="M23.26 9.5H7.75c-.41 0-.75.34-.75.75s.34.75.75.75h15.51c.41 0 .75-.34.75-.75s-.34-.75-.75-.75Z"/></svg>
